X:38
T:Beaumont Rag
R:Rag
M:4/4
L:1/8
N:Transcribed by Bruce Thomson
K:F
z2f2g2a2[|â€Câ€b4g3^d|ege(c4c)|â€Fâ€a4f3c|dcAc2dcA|â€Câ€cdeg2ege|
agec2dcA|FGAc2AcA|dcAc2dcA|â€Câ€b2b2gbg^d|egec2dec|â€Fâ€a2a2fgfc|
dcAc2dcA|â€Bbâ€Bcdef2gf|â€Fâ€agfdc2ba|â€Câ€gfed cdeg|â€Fâ€f8|]EEcE EdEE|
cEEE dEcE|FFcF FdFF|cFFF dFcF|EEcE EdEE|
cEEE d2fe|f2F2F2cB|Acf2f4|EEcE EdEE|cEEE dEcE|
FFcF FdFF|^dFF=d FFc2|â€Bbâ€Bcde fegf|â€Fâ€agfdc2ba|â€Câ€gfed cdeg|â€Fâ€f8|

